X: 86
T: Polska efter Petter Dufva
S: efter Petter Dufva
R: Polska
Z: Håkan Lidén, 2009-02-01
O: Småland
S: känd genom Hedningarna
B: http://www.smus.se/earkiv/fmk/browselarge.php?lang=sw&katalogid=Ma+6&bildnr=00145
N: Hedningarna spelar i en annan tonart (Gm om jag minns rätt)
M: 3/4
L: 1/8
K: Dm
d2 dc cA | cd ef d2 | f2 fe ed | dc ec A2 :|
|: f/e/f/g/ af ge | f/e/f/g/ af de | f/e/f/g/ af ge | f/e/d/^c/ c2 d2 :|
(:musicend:)

(:music:)
